X: 29989
T: Octopus, The
R: polka
M: 2/4
K: Bminor
|:B>d cB|cA c/B/A|F>d cB|cd ed|
B>d cB|cA c/B/A|F>d cB|1 cB BF:|2 cB Bd||
|:e>f ec|df ed|ea ag|af ed|
e>f ec|df ed|cd Bd|1 fe ed:|2 Af ed||

